; generated by Slic3r 1.2.9 on 2015-10-10 at 18:22:16

; external perimeters extrusion width = 0.40mm
; perimeters extrusion width = 0.67mm
; infill extrusion width = 0.67mm
; solid infill extrusion width = 0.67mm
; top infill extrusion width = 0.67mm

M190 S100 ; set bed temperature
M104 S255 ; set temperature
M100 ;start of print, LEDs pulse
G28 X0 Y0; home x y
G29 ; level bed
G1 Z5 F5000 ; lift nozzle


M109 S255 ; wait for temperature to be reached
G21 ; set units to millimeters
G90 ; use absolute coordinates
M82 ; use absolute distances for extrusion
G92 E0
G1 E-1.00000 F1800.00000
G92 E0
G1 Z0.350 F7800.000
G1 X44.419 Y45.319 F7800.000
G1 E1.00000 F1800.00000
G1 X46.172 Y43.840 E1.14598 F1800.000
G1 X48.324 Y43.047 E1.29196
G1 X49.498 Y42.941 E1.36702
G1 X150.500 Y42.875 E7.79584
G1 X152.759 Y43.272 E7.94182
G1 X154.747 Y44.415 E8.08780 F1800.000
G1 X156.226 Y46.168 E8.23378
G1 X157.019 Y48.320 E8.37976
G1 X157.125 Y49.500 E8.45516
G1 X157.125 Y64.658 E9.41996
G1 X157.024 Y150.508 E14.88438
G1 X156.624 Y152.766 E15.03036
G1 X155.479 Y154.753 E15.17634
G1 X153.724 Y156.230 E15.32232
G1 X151.571 Y157.020 E15.46830
G1 X150.399 Y157.125 E15.54320
G1 X49.500 Y157.125 E21.96549
G1 X47.241 Y156.728 E22.11147
G1 X45.253 Y155.585 E22.25745
G1 X43.774 Y153.832 E22.40343
G1 X42.981 Y151.680 E22.54941
G1 X42.875 Y150.500 E22.62480
G1 X42.879 Y49.566 E29.04933
G1 X43.276 Y47.307 E29.19531
G1 X44.389 Y45.371 E29.33747
G1 E28.33747 F1800.00000
G92 E0
G1 X47.980 Y48.880 F7800.000
G1 E1.00000 F1800.00000
G1 X48.856 Y48.004 E1.07887 F1800.000
G1 X65.301 Y48.004 E2.12555
G1 X66.216 Y48.919 E2.20793
G1 X66.216 Y55.542 E2.62946
G1 X66.358 Y55.814 E2.64903
G1 X66.865 Y56.183 E2.68893
G1 X67.509 Y56.753 E2.74368
G1 X67.821 Y57.082 E2.77253
G1 X68.114 Y57.428 E2.80139
G1 X68.486 Y57.937 E2.84152
G1 X68.758 Y58.079 E2.86105
G1 X80.778 Y58.079 E3.62614
G1 X81.050 Y57.937 E3.64570
G1 X81.384 Y57.477 E3.68180
G1 X81.670 Y57.132 E3.71040
G1 X81.977 Y56.803 E3.73900
G1 X82.302 Y56.493 E3.76759
G1 X82.967 Y55.962 E3.82173
G1 X83.419 Y55.662 E3.85629
G1 X84.170 Y55.259 E3.91055
G1 X84.583 Y55.081 E3.93914
G1 X85.005 Y54.928 E3.96774
G1 X85.436 Y54.800 E3.99634
G1 X85.873 Y54.697 E4.02493
G1 X86.718 Y54.552 E4.07952
G1 X87.276 Y54.769 E4.11760
G1 X87.510 Y54.769 E4.13251
G1 X88.068 Y54.552 E4.17059
G1 X88.868 Y54.688 E4.22224
G1 X89.306 Y54.788 E4.25084
G1 X89.737 Y54.914 E4.27944
G1 X90.203 Y55.081 E4.31097
G1 X90.616 Y55.259 E4.33956
G1 X91.017 Y55.461 E4.36817
G1 X91.406 Y55.686 E4.39677
G1 X91.781 Y55.934 E4.42536
G1 X92.141 Y56.203 E4.45396
G1 X92.484 Y56.493 E4.48256
G1 X93.085 Y57.097 E4.53681
G1 X93.402 Y57.478 E4.56834
G1 X93.736 Y57.937 E4.60444
G1 X94.008 Y58.079 E4.62399
G1 X106.028 Y58.079 E5.38910
G1 X106.300 Y57.937 E5.40866
G1 X106.634 Y57.477 E5.44477
G1 X106.920 Y57.132 E5.47337
G1 X107.227 Y56.803 E5.50196
G1 X107.552 Y56.493 E5.53056
G1 X108.217 Y55.962 E5.58469
G1 X108.669 Y55.662 E5.61926
G1 X109.420 Y55.259 E5.67351
G1 X109.833 Y55.081 E5.70211
G1 X110.255 Y54.928 E5.73070
G1 X110.686 Y54.800 E5.75930
G1 X111.123 Y54.697 E5.78790
G1 X111.968 Y54.552 E5.84249
G1 X112.526 Y54.769 E5.88056
G1 X112.760 Y54.769 E5.89547
G1 X113.318 Y54.552 E5.93355
G1 X114.118 Y54.688 E5.98521
G1 X114.556 Y54.788 E6.01381
G1 X114.987 Y54.914 E6.04240
G1 X115.453 Y55.081 E6.07393
G1 X115.866 Y55.259 E6.10253
G1 X116.267 Y55.461 E6.13113
G1 X116.656 Y55.686 E6.15973
G1 X117.031 Y55.934 E6.18833
G1 X117.391 Y56.203 E6.21692
G1 X117.734 Y56.493 E6.24553
G1 X118.335 Y57.097 E6.29976
G1 X118.652 Y57.477 E6.33130
G1 X118.986 Y57.937 E6.36740
G1 X119.258 Y58.079 E6.38696
G1 X131.278 Y58.079 E7.15207
G1 X131.550 Y57.937 E7.17162
G1 X131.913 Y57.440 E7.21074
G1 X132.478 Y56.802 E7.26503
G1 X132.804 Y56.492 E7.29364
G1 X133.147 Y56.202 E7.32227
G1 X133.646 Y55.835 E7.36168
G1 X133.788 Y55.564 E7.38116
G1 X133.788 Y48.853 E7.80830
G1 X134.703 Y47.938 E7.89067
G1 X151.147 Y47.938 E8.93735
G1 X152.062 Y48.853 E9.01973
G1 X152.062 Y65.297 E10.06641 F1800.000
G1 X151.147 Y66.212 E10.14879
G1 X144.536 Y66.212 E10.56962
G1 X144.262 Y66.356 E10.58927
G1 X143.891 Y66.869 E10.62958
G1 X143.319 Y67.519 E10.68469
G1 X142.989 Y67.834 E10.71375
G1 X142.641 Y68.129 E10.74280
G1 X142.122 Y68.510 E10.78376
G1 X141.980 Y68.782 E10.80326
G1 X141.980 Y80.802 E11.56834
G1 X142.123 Y81.074 E11.58789
G1 X142.582 Y81.407 E11.62400
G1 X142.962 Y81.724 E11.65553
G1 X143.533 Y82.291 E11.70673
G1 X143.856 Y82.669 E11.73836
G1 X144.125 Y83.028 E11.76697
G1 X144.373 Y83.403 E11.79557
G1 X144.598 Y83.792 E11.82417
G1 X144.800 Y84.193 E11.85277
G1 X144.978 Y84.606 E11.88136
G1 X145.131 Y85.028 E11.90996
G1 X145.271 Y85.503 E11.94148
G1 X145.371 Y85.941 E11.97009
G1 X145.507 Y86.742 E12.02175
G1 X145.291 Y87.299 E12.05982
G1 X145.291 Y87.533 E12.07473
G1 X145.507 Y88.091 E12.11281
G1 X145.362 Y88.936 E12.16739
G1 X145.260 Y89.374 E12.19599
G1 X145.131 Y89.804 E12.22459
G1 X144.820 Y90.598 E12.27884
G1 X144.620 Y91.000 E12.30743
G1 X144.397 Y91.390 E12.33603
G1 X144.125 Y91.804 E12.36756
G1 X143.856 Y92.164 E12.39616
G1 X143.566 Y92.507 E12.42476
G1 X143.256 Y92.832 E12.45335
G1 X142.928 Y93.139 E12.48196
G1 X142.582 Y93.426 E12.51056
G1 X142.123 Y93.759 E12.54666
G1 X141.980 Y94.031 E12.56622
G1 X141.980 Y106.052 E13.33133
G1 X142.123 Y106.324 E13.35088
G1 X142.582 Y106.657 E13.38699
G1 X142.962 Y106.974 E13.41851
G1 X143.533 Y107.541 E13.46972
G1 X143.856 Y107.919 E13.50135
G1 X144.125 Y108.278 E13.52995
G1 X144.373 Y108.653 E13.55856
G1 X144.598 Y109.042 E13.58715
G1 X144.800 Y109.443 E13.61576
G1 X144.995 Y109.899 E13.64728
G1 X145.146 Y110.322 E13.67588
G1 X145.271 Y110.753 E13.70447
G1 X145.371 Y111.191 E13.73307
G1 X145.507 Y111.992 E13.78473
G1 X145.291 Y112.549 E13.82281
G1 X145.291 Y112.783 E13.83771
G1 X145.507 Y113.341 E13.87580
G1 X145.362 Y114.186 E13.93038
G1 X145.260 Y114.624 E13.95898
G1 X145.131 Y115.054 E13.98758
G1 X144.820 Y115.848 E14.04183
G1 X144.620 Y116.250 E14.07041
G1 X144.397 Y116.640 E14.09902
G1 X144.125 Y117.054 E14.13055
G1 X143.856 Y117.414 E14.15915
G1 X143.566 Y117.757 E14.18775
G1 X143.256 Y118.082 E14.21634
G1 X142.928 Y118.389 E14.24494
G1 X142.582 Y118.676 E14.27354
G1 X142.123 Y119.009 E14.30965
G1 X141.980 Y119.281 E14.32920
G1 X141.980 Y131.302 E15.09432
G1 X142.123 Y131.574 E15.11390
G1 X142.610 Y131.929 E15.15229
G1 X143.246 Y132.490 E15.20626
G1 X143.555 Y132.813 E15.23470
G1 X143.844 Y133.154 E15.26315
G1 X144.209 Y133.647 E15.30220
G1 X144.480 Y133.788 E15.32162
G1 X151.046 Y133.788 E15.73956
G1 X151.961 Y134.703 E15.82194
G1 X151.961 Y151.147 E16.86862
G1 X151.046 Y152.062 E16.95100
G1 X134.602 Y152.062 E17.99768
G1 X133.687 Y151.147 E18.08006
G1 X133.687 Y144.449 E18.50637
G1 X133.549 Y144.181 E18.52556
G1 X133.075 Y143.823 E18.56340
G1 X132.744 Y143.536 E18.59129
G1 X132.429 Y143.231 E18.61916
G1 X131.884 Y142.605 E18.67202
G1 X131.542 Y142.139 E18.70882
G1 X131.275 Y142.004 E18.72787
G1 X119.258 Y142.004 E19.49275
G1 X118.986 Y142.146 E19.51230
G1 X118.653 Y142.605 E19.54841
G1 X118.366 Y142.951 E19.57701
G1 X118.059 Y143.280 E19.60562
G1 X117.734 Y143.589 E19.63422
G1 X117.391 Y143.879 E19.66281
G1 X117.031 Y144.149 E19.69140
G1 X116.617 Y144.421 E19.72293
G1 X115.866 Y144.824 E19.77719
G1 X115.453 Y145.002 E19.80579
G1 X115.031 Y145.155 E19.83439
G1 X114.600 Y145.283 E19.86299
G1 X114.163 Y145.385 E19.89157
G1 X113.318 Y145.530 E19.94617
G1 X112.760 Y145.314 E19.98424
G1 X112.526 Y145.314 E19.99915
G1 X111.968 Y145.530 E20.03722
G1 X111.168 Y145.395 E20.08888
G1 X110.686 Y145.283 E20.12040
G1 X110.255 Y145.155 E20.14901
G1 X109.833 Y145.002 E20.17760
G1 X109.420 Y144.824 E20.20620
G1 X109.018 Y144.622 E20.23481
G1 X108.630 Y144.396 E20.26341
G1 X108.255 Y144.149 E20.29201
G1 X107.895 Y143.879 E20.32059
G1 X107.552 Y143.589 E20.34920
G1 X106.951 Y142.986 E20.40345
G1 X106.634 Y142.605 E20.43497
G1 X106.300 Y142.146 E20.47108
G1 X106.028 Y142.004 E20.49064
G1 X94.008 Y142.004 E21.25574
G1 X93.736 Y142.146 E21.27530
G1 X93.402 Y142.605 E21.31141
G1 X93.116 Y142.951 E21.34000
G1 X92.809 Y143.279 E21.36860
G1 X92.484 Y143.589 E21.39720
G1 X92.141 Y143.879 E21.42580
G1 X91.781 Y144.149 E21.45440
G1 X91.367 Y144.421 E21.48592
G1 X90.616 Y144.824 E21.54018
G1 X90.203 Y145.002 E21.56878
G1 X89.781 Y145.155 E21.59738
G1 X89.350 Y145.283 E21.62598
G1 X88.913 Y145.385 E21.65456
G1 X88.068 Y145.530 E21.70916
G1 X87.510 Y145.314 E21.74723
G1 X87.276 Y145.314 E21.76214
G1 X86.718 Y145.530 E21.80021
G1 X85.918 Y145.395 E21.85187
G1 X85.436 Y145.283 E21.88339
G1 X85.005 Y145.155 E21.91200
G1 X84.583 Y145.002 E21.94059
G1 X84.170 Y144.824 E21.96919
G1 X83.768 Y144.622 E21.99780
G1 X83.380 Y144.396 E22.02640
G1 X83.005 Y144.149 E22.05500
G1 X82.645 Y143.879 E22.08359
G1 X82.302 Y143.589 E22.11219
G1 X81.701 Y142.986 E22.16643
G1 X81.384 Y142.605 E22.19796
G1 X81.050 Y142.146 E22.23407
G1 X80.778 Y142.004 E22.25363
G1 X68.758 Y142.004 E23.01872
G1 X68.486 Y142.145 E23.03824
G1 X68.113 Y142.655 E23.07847
G1 X67.820 Y143.002 E23.10736
G1 X67.507 Y143.331 E23.13625
G1 X66.863 Y143.902 E23.19104
G1 X66.355 Y144.271 E23.23098
G1 X66.212 Y144.543 E23.25057
G1 X66.212 Y151.147 E23.67091
G1 X65.297 Y152.062 E23.75329
G1 X48.853 Y152.062 E24.79997
G1 X47.938 Y151.147 E24.88235
G1 X47.938 Y134.703 E25.92903
G1 X48.853 Y133.788 E26.01141
G1 X55.556 Y133.788 E26.43807
G1 X55.827 Y133.647 E26.45749
G1 X56.192 Y133.154 E26.49654
G1 X56.481 Y132.813 E26.52499
G1 X56.790 Y132.490 E26.55342
G1 X57.425 Y131.929 E26.60739
G1 X57.913 Y131.574 E26.64579
G1 X58.056 Y131.302 E26.66537
G1 X58.056 Y119.281 E27.43048
G1 X57.913 Y119.009 E27.45004
G1 X57.454 Y118.676 E27.48614
G1 X57.108 Y118.389 E27.51475
G1 X56.780 Y118.082 E27.54335
G1 X56.470 Y117.757 E27.57195
G1 X56.180 Y117.414 E27.60054
G1 X55.911 Y117.054 E27.62913
G1 X55.639 Y116.640 E27.66065
G1 X55.236 Y115.889 E27.71491
G1 X55.058 Y115.477 E27.74352
G1 X54.904 Y115.054 E27.77211
G1 X54.776 Y114.624 E27.80071
G1 X54.674 Y114.186 E27.82930
G1 X54.529 Y113.341 E27.88390
G1 X54.745 Y112.783 E27.92197
G1 X54.745 Y112.549 E27.93688
G1 X54.529 Y111.992 E27.97495
G1 X54.665 Y111.192 E28.02661
G1 X54.765 Y110.753 E28.05522
G1 X54.890 Y110.322 E28.08380
G1 X55.041 Y109.899 E28.11241
G1 X55.236 Y109.443 E28.14393
G1 X55.438 Y109.042 E28.17254
G1 X55.663 Y108.653 E28.20114
G1 X55.911 Y108.278 E28.22973
G1 X56.180 Y107.919 E28.25833
G1 X56.470 Y107.576 E28.28693
G1 X57.074 Y106.974 E28.34117
G1 X57.454 Y106.657 E28.37270
G1 X57.913 Y106.324 E28.40881
G1 X58.056 Y106.052 E28.42837
G1 X58.056 Y94.031 E29.19347
G1 X57.913 Y93.759 E29.21303
G1 X57.454 Y93.426 E29.24914
G1 X57.108 Y93.139 E29.27774
G1 X56.780 Y92.832 E29.30633
G1 X56.470 Y92.507 E29.33494
G1 X56.180 Y92.164 E29.36353
G1 X55.911 Y91.804 E29.39212
G1 X55.639 Y91.390 E29.42364
G1 X55.236 Y90.639 E29.47790
G1 X55.058 Y90.227 E29.50651
G1 X54.905 Y89.805 E29.53509
G1 X54.776 Y89.374 E29.56370
G1 X54.674 Y88.936 E29.59230
G1 X54.529 Y88.091 E29.64689
G1 X54.745 Y87.533 E29.68496
G1 X54.745 Y87.299 E29.69987
G1 X54.529 Y86.742 E29.73794
G1 X54.665 Y85.942 E29.78960
G1 X54.765 Y85.503 E29.81821
G1 X54.890 Y85.072 E29.84680
G1 X55.041 Y84.649 E29.87540
G1 X55.236 Y84.193 E29.90693
G1 X55.438 Y83.792 E29.93554
G1 X55.663 Y83.403 E29.96413
G1 X55.911 Y83.028 E29.99272
G1 X56.180 Y82.669 E30.02132
G1 X56.470 Y82.326 E30.04992
G1 X57.074 Y81.724 E30.10416
G1 X57.454 Y81.407 E30.13569
G1 X57.913 Y81.074 E30.17180
G1 X58.056 Y80.802 E30.19136
G1 X58.056 Y68.781 E30.95646
G1 X57.913 Y68.509 E30.97602
G1 X57.419 Y68.148 E31.01494
G1 X56.782 Y67.584 E31.06912
G1 X56.472 Y67.260 E31.09769
G1 X56.182 Y66.917 E31.12627
G1 X55.816 Y66.420 E31.16556
G1 X55.545 Y66.278 E31.18503
G1 X48.856 Y66.278 E31.61076
G1 X47.941 Y65.363 E31.69313
G1 X47.941 Y48.924 E32.73951
G1 X48.566 Y49.178 F7800.000
G1 X49.115 Y48.629 E32.78893 F1800.000
G1 X65.042 Y48.629 E33.80267
G1 X65.591 Y49.178 E33.85209
G1 X65.591 Y55.885 E34.27897
G1 X65.742 Y56.164 E34.29918
G1 X66.450 Y56.652 E34.35393
G1 X66.792 Y56.936 E34.38220
G1 X67.094 Y57.222 E34.40868
G1 X67.646 Y57.844 E34.46165
G1 X68.138 Y58.553 E34.51654
G1 X68.416 Y58.704 E34.53669
G1 X81.120 Y58.704 E35.34534
G1 X81.399 Y58.553 E35.36552
G1 X81.881 Y57.856 E35.41943
G1 X82.144 Y57.539 E35.44569
G1 X82.446 Y57.218 E35.47370
G1 X83.040 Y56.687 E35.52443
G1 X83.715 Y56.214 E35.57691
G1 X84.441 Y55.822 E35.62940
G1 X85.208 Y55.519 E35.68188
G1 X86.005 Y55.308 E35.73437
G1 X86.653 Y55.197 E35.77621
G1 X87.276 Y55.439 E35.81876
G1 X87.510 Y55.439 E35.83366
G1 X88.133 Y55.197 E35.87622
G1 X88.754 Y55.303 E35.91630
G1 X89.183 Y55.402 E35.94431
G1 X89.578 Y55.519 E35.97057
G1 X89.966 Y55.659 E35.99682
G1 X90.689 Y55.994 E36.04755
G1 X91.393 Y56.425 E36.10004
G1 X91.746 Y56.688 E36.12805
G1 X92.061 Y56.954 E36.15430
G1 X92.597 Y57.490 E36.20258
G1 X92.888 Y57.834 E36.23128
G1 X93.134 Y58.166 E36.25754
G1 X93.387 Y58.553 E36.28698
G1 X93.666 Y58.704 E36.30716
G1 X106.370 Y58.704 E37.11582
G1 X106.649 Y58.553 E37.13599
G1 X107.131 Y57.856 E37.18991
G1 X107.394 Y57.539 E37.21617
G1 X107.696 Y57.218 E37.24418
G1 X108.290 Y56.687 E37.29491
G1 X108.965 Y56.214 E37.34739
G1 X109.691 Y55.822 E37.39988
G1 X110.458 Y55.519 E37.45236
G1 X111.255 Y55.308 E37.50484
G1 X111.903 Y55.197 E37.54669
G1 X112.526 Y55.439 E37.58924
G1 X112.760 Y55.439 E37.60414
G1 X113.383 Y55.197 E37.64669
G1 X114.004 Y55.303 E37.68678
G1 X114.433 Y55.402 E37.71479
G1 X114.828 Y55.519 E37.74105
G1 X115.216 Y55.659 E37.76730
G1 X115.939 Y55.994 E37.81803
G1 X116.643 Y56.425 E37.87052
G1 X116.996 Y56.688 E37.89853
G1 X117.311 Y56.954 E37.92478
G1 X117.873 Y57.518 E37.97551
G1 X118.138 Y57.834 E38.00176
G1 X118.384 Y58.166 E38.02802
G1 X118.637 Y58.553 E38.05746
G1 X118.916 Y58.704 E38.07764
G1 X131.620 Y58.704 E38.88630
G1 X131.899 Y58.553 E38.90647
G1 X132.381 Y57.855 E38.96047
G1 X132.645 Y57.538 E38.98674
G1 X132.947 Y57.217 E39.01477
G1 X133.564 Y56.669 E39.06730
G1 X134.263 Y56.182 E39.12148
G1 X134.413 Y55.905 E39.14159
G1 X134.413 Y49.112 E39.57395
G1 X134.962 Y48.563 E39.62338
G1 X150.888 Y48.563 E40.63711
G1 X151.437 Y49.112 E40.68654 F1800.000
G1 X151.437 Y65.038 E41.70027
G1 X150.888 Y65.587 E41.74970
G1 X144.191 Y65.587 E42.17599
G1 X143.911 Y65.740 E42.19627
G1 X143.668 Y66.117 E42.22483
G1 X143.421 Y66.456 E42.25150
G1 X143.155 Y66.779 E42.27817
G1 X142.849 Y67.106 E42.30663
G1 X142.545 Y67.393 E42.33330
G1 X142.224 Y67.662 E42.35997
G1 X141.887 Y67.912 E42.38664
G1 X141.506 Y68.161 E42.41564
G1 X141.355 Y68.440 E42.43577
G1 X141.355 Y81.144 E43.24440
G1 X141.506 Y81.422 E43.26457
G1 X141.894 Y81.675 E43.29401
G1 X142.225 Y81.921 E43.32027
G1 X142.541 Y82.186 E43.34652
G1 X143.106 Y82.748 E43.39725
G1 X143.389 Y83.085 E43.42526
G1 X143.635 Y83.417 E43.45152
G1 X144.065 Y84.120 E43.50401
G1 X144.400 Y84.843 E43.55473
G1 X144.540 Y85.231 E43.58098
G1 X144.665 Y85.653 E43.60900
G1 X144.757 Y86.055 E43.63525
G1 X144.862 Y86.676 E43.67534
G1 X144.620 Y87.299 E43.71789
G1 X144.620 Y87.533 E43.73279
G1 X144.862 Y88.157 E43.77534
G1 X144.751 Y88.805 E43.81719
G1 X144.540 Y89.602 E43.86967
G1 X144.237 Y90.368 E43.92216
G1 X143.846 Y91.094 E43.97464
G1 X143.389 Y91.747 E44.02537
G1 X142.841 Y92.364 E44.07785
G1 X142.541 Y92.647 E44.10411
G1 X142.203 Y92.929 E44.13213
G1 X141.506 Y93.410 E44.18604
G1 X141.355 Y93.689 E44.20622
G1 X141.355 Y106.394 E45.01488
G1 X141.506 Y106.672 E45.03506
G1 X141.894 Y106.925 E45.06450
G1 X142.225 Y107.171 E45.09075
G1 X142.541 Y107.436 E45.11700
G1 X143.106 Y107.998 E45.16774
G1 X143.389 Y108.335 E45.19574
G1 X143.635 Y108.667 E45.22200
G1 X144.065 Y109.370 E45.27449
G1 X144.400 Y110.093 E45.32521
G1 X144.540 Y110.481 E45.35147
G1 X144.665 Y110.903 E45.37948
G1 X144.757 Y111.305 E45.40573
G1 X144.862 Y111.926 E45.44582
G1 X144.620 Y112.549 E45.48837
G1 X144.620 Y112.783 E45.50327
G1 X144.862 Y113.407 E45.54582
G1 X144.751 Y114.055 E45.58767
G1 X144.540 Y114.852 E45.64015
G1 X144.237 Y115.618 E45.69264
G1 X143.846 Y116.344 E45.74512
G1 X143.389 Y116.997 E45.79585
G1 X142.841 Y117.614 E45.84833
G1 X142.520 Y117.915 E45.87635
